X: 0
T: Zakynthos
C: Roger Wilson
M: 6/8
L: 1/8
K: Am 
|: "Am"a2a gag|"Am"e2 a-agg|"Am"ecc BcB|"F"AFF F2F|"Am"EAB cBA|"F"FAB cBA|"G"B2B edB|"Em"Bcd "Am"cBA :|
|: "Am/E"EAB cBA|"F"FAB cBA|"G"B2B edB|"Em"Bcd cBA|"Am"EAB cBA|"F"FAB cBA|"G"B2B edB|1"Am"B2 A2 "F"F2 :|2"Am"B2 A2 Bc ||
|: "Dm"d2 d2 c2|"Dm"dc2 B2A|"Dm"d2d-dcd|"Em"B2c B2A|"Dm"d2 d2 c2|"Dm"d c2 B2A|"Dm"ddd dcd|[1"Em"e3-ecA :|[2 "Em"e3-eg^g||